public/assets/img/icon_instagram01.svg

<svg width="18" height="23" viewBox="0 0 18 23" fill="none" xmlns="http://www.w3.org/2000/svg">
<g clip-path="url(#clip0_66_162)">
<path d="M9.0038 6.63366C6.44844 6.63366 4.38728 8.85799 4.38728 11.6156C4.38728 14.3733 6.44844 16.5976 9.0038 16.5976C11.5592 16.5976 13.6203 14.3733 13.6203 11.6156C13.6203 8.85799 11.5592 6.63366 9.0038 6.63366ZM9.0038 14.8546C7.35246 14.8546 6.00246 13.4021 6.00246 11.6156C6.00246 9.82924 7.34844 8.37671 9.0038 8.37671C10.6592 8.37671 12.0051 9.82924 12.0051 11.6156C12.0051 13.4021 10.6551 14.8546 9.0038 14.8546ZM14.8859 6.42987C14.8859 7.07593 14.4038 7.5919 13.8092 7.5919C13.2105 7.5919 12.7324 7.07159 12.7324 6.42987C12.7324 5.78815 13.2145 5.26784 13.8092 5.26784C14.4038 5.26784 14.8859 5.78815 14.8859 6.42987ZM17.9435 7.60925C17.8752 6.05264 17.5458 4.67382 16.4891 3.5378C15.4364 2.40179 14.1587 2.04624 12.7163 1.96819C11.2297 1.87714 6.77389 1.87714 5.28728 1.96819C3.84889 2.0419 2.57121 2.39745 1.51451 3.53347C0.457814 4.66948 0.132368 6.04831 0.0600464 7.60491C-0.0243286 9.20921 -0.0243286 14.0178 0.0600464 15.6221C0.12835 17.1787 0.457814 18.5575 1.51451 19.6935C2.57121 20.8295 3.84487 21.1851 5.28728 21.2631C6.77389 21.3542 11.2297 21.3542 12.7163 21.2631C14.1587 21.1894 15.4364 20.8338 16.4891 19.6935C17.5417 18.5575 17.8712 17.1787 17.9435 15.6221C18.0279 14.0178 18.0279 9.21354 17.9435 7.60925ZM16.023 17.3434C15.7096 18.1933 15.1029 18.848 14.3114 19.1905C13.1261 19.6978 10.3136 19.5808 9.0038 19.5808C7.69398 19.5808 4.87746 19.6935 3.69621 19.1905C2.90871 18.8523 2.30201 18.1976 1.9846 17.3434C1.51451 16.0643 1.62299 13.0292 1.62299 11.6156C1.62299 10.2021 1.51853 7.16264 1.9846 5.88788C2.29799 5.03804 2.90469 4.38331 3.69621 4.04077C4.88148 3.53347 7.69398 3.65054 9.0038 3.65054C10.3136 3.65054 13.1301 3.5378 14.3114 4.04077C15.0989 4.37897 15.7056 5.0337 16.023 5.88788C16.4931 7.16698 16.3846 10.2021 16.3846 11.6156C16.3846 13.0292 16.4931 16.0687 16.023 17.3434Z" fill="#3EA1D1"/>
</g>
<defs>
<clipPath id="clip0_66_162">
<rect width="18" height="22.2" fill="white" transform="translate(0 0.52002)"/>
</clipPath>
</defs>
</svg>

<svg xmlns="http://www.w3.org/2000/svg" width="18" height="23" fill="none" viewBox="0 0 18 23"><g clip-path="url(#a)"><path fill="#3ea1d1" d="M9.004 6.634c-2.556 0-4.617 2.224-4.617 4.982s2.061 4.982 4.617 4.982 4.616-2.225 4.616-4.982-2.06-4.982-4.616-4.982m0 8.22c-1.652 0-3.002-1.452-3.002-3.238s1.346-3.24 3.002-3.24 3.001 1.453 3.001 3.24c0 1.786-1.35 3.239-3.001 3.239m5.882-8.424c0 .646-.482 1.162-1.077 1.162-.598 0-1.077-.52-1.077-1.162s.482-1.162 1.077-1.162 1.077.52 1.077 1.162m3.058 1.18c-.069-1.557-.398-2.936-1.455-4.072-1.053-1.136-2.33-1.492-3.773-1.57-1.486-.09-5.942-.09-7.429 0-1.438.074-2.716.43-3.772 1.565C.458 4.67.132 6.048.06 7.605c-.084 1.604-.084 6.413 0 8.017.068 1.557.398 2.936 1.455 4.072s2.33 1.491 3.772 1.57c1.487.09 5.943.09 7.43 0 1.442-.075 2.72-.43 3.772-1.57 1.053-1.136 1.382-2.515 1.454-4.072.085-1.604.085-6.408 0-8.013m-1.921 9.733c-.313.85-.92 1.505-1.712 1.848-1.185.507-3.997.39-5.307.39s-4.127.113-5.308-.39c-.787-.339-1.394-.993-1.711-1.848-.47-1.279-.362-4.314-.362-5.727s-.104-4.453.362-5.728c.313-.85.92-1.505 1.711-1.847 1.185-.508 3.998-.39 5.308-.39s4.126-.113 5.307.39c.788.338 1.395.993 1.712 1.847.47 1.279.362 4.314.362 5.728s.108 4.453-.362 5.727"/></g><defs><clipPath id="a"><path fill="#fff" d="M0 .52h18v22.2H0z"/></clipPath></defs></svg>
